public/images/instagramm.svg

<svg width="27" height="27" viewBox="0 0 27 27" fill="none" xmlns="http://www.w3.org/2000/svg">
<circle cx="13.2632" cy="13.2632" r="13.2632" fill="white"/>
<path d="M17.6274 7.9579H9.56234C8.65177 7.9579 7.95801 8.65167 7.95801 9.56223V17.6273C7.95801 18.5378 8.65177 19.2316 9.56234 19.2316H17.6274C18.5379 19.2316 19.2317 18.5378 19.2317 17.6273V9.56223C19.2317 8.65167 18.5379 7.9579 17.6274 7.9579ZM13.5949 16.9768C15.4593 16.9768 16.977 15.5026 16.977 13.7248C16.977 13.4213 16.9336 13.0744 16.8469 12.8143H17.8008V17.4105C17.8008 17.6273 17.6274 17.8441 17.3672 17.8441H9.8225C9.6057 17.8441 9.3889 17.6706 9.3889 17.4105V12.7709H10.3862C10.2995 13.0744 10.2561 13.3779 10.2561 13.6815C10.2127 15.5026 11.7304 16.9768 13.5949 16.9768ZM13.5949 15.676C12.3808 15.676 11.4268 14.7221 11.4268 13.5514C11.4268 12.3807 12.3808 11.4267 13.5949 11.4267C14.8089 11.4267 15.7629 12.3807 15.7629 13.5514C15.7629 14.7655 14.8089 15.676 13.5949 15.676ZM17.7574 11.0365C17.7574 11.2966 17.5406 11.5134 17.2805 11.5134H16.0664C15.8062 11.5134 15.5894 11.2966 15.5894 11.0365V9.86576C15.5894 9.60559 15.8062 9.38879 16.0664 9.38879H17.2805C17.5406 9.38879 17.7574 9.60559 17.7574 9.86576V11.0365Z" fill="black"/>
</svg>

<svg width="27" height="27" fill="none" xmlns="http://www.w3.org/2000/svg"><circle cx="13.263" cy="13.263" r="13.263" fill="#fff"/><path d="M17.627 7.958H9.562c-.91 0-1.604.694-1.604 1.604v8.065c0 .91.694 1.605 1.604 1.605h8.065c.91 0 1.605-.694 1.605-1.605V9.562c0-.91-.694-1.604-1.605-1.604zm-4.032 9.019c1.864 0 3.382-1.474 3.382-3.252 0-.304-.043-.65-.13-.91h.954v4.595a.434.434 0 01-.434.434H9.822a.435.435 0 01-.433-.434v-4.64h.997c-.086.304-.13.608-.13.912-.043 1.82 1.474 3.295 3.339 3.295zm0-1.301c-1.214 0-2.168-.954-2.168-2.125 0-1.17.954-2.124 2.168-2.124 1.214 0 2.168.954 2.168 2.124 0 1.214-.954 2.125-2.168 2.125zm4.162-4.64a.48.48 0 01-.477.477h-1.214a.481.481 0 01-.477-.476V9.866c0-.26.217-.477.477-.477h1.215a.48.48 0 01.476.477v1.17z" fill="#000"/></svg>
